X:1404
T:Polska ur Sven Donats notbok
T:(MA5-28)
R:Polska
O:Småland
S:Efter Sven Donat
N:[[http://www.smus.se/earkiv/fmk/browsevol.php?lang=sw&katalogid=Ma+5&bildnr=00030|MA5, låt 28, sida 30]]
Z:Till abc Jonas Brunskog
B:Sven Donats notbok
M:3/4
L:1/8
K:G
|:Gg gf/g/ bg|DG GF/G/ BG|Gb ba/b/ c'/b/a/g/|ff/g/ a/g/f/e/ d2|
Gg gf/g/ bg|DG GF/G/ BG|Gb ba/b/ c'/b/a/g/|ff/a/ g4:|
|:Gd' d'2 d'/c'/b/a/|g/f/e/d/ c/B/A/B/ c2|Gc' c'2 c'/b/a/g/|f/e/d/c/ B/A/G/A/ B2|
Gg gf/g/ bg|DG GF/G/ BG|Ge' e'd' d'c'|b/c'/d'/b/ g4:|
(:musicend:)
(:music:)
